X:783
M:C|
L:1/8
K:D
f|afdf afdf|eA A/A/A c2 c>f|afdf afdf|egfe d2 d>f|
afdf afdf|eA A/A/A c2 c>f|afge fdec|Agfe d2d||

